X:1
T:Requiem aeternam
T:Requiem aeternam
T:Giovanni Battista Martini (1706-1784)
C:Giovanni Battista Martini (1706-1784)
%%score [ 1 2 3 ]
L:1/8
Q:1/4=60
M:4/4
K:Ab
V:1 treble nm="Sopran"
V:2 treble nm="Sopran"
V:3 treble nm="Alt"
V:1
 c3 c d2 c2 | B4 c2 e e | d2 c2 c2 (BA) | B4 c4 | A2 A2 d3 c | B4 e3 d | c2 (d4 c2 | B8) | c8 |] %9
w: Re- qui- em ae-|ter- nam do- na|e- is, Do- mi- *|ne, et|lux per- pe- tu-|a lu- ce-|at e- *||is.|
V:2
 A3 A B2 A2 | G4 A2 c c | B2 A2 A2 (GF) | G4 A4 | F2 F2 B3 A | G4 c3 B | A2 (BA G2 A2- | %7
w: Re- qui- em ae-|ter- nam do- na|e- is, Do- mi- *|ne, et|lux per- pe- tu-|a lu- ce-|at e- * * *|
 A2 GF G4) | A8 |] %9
w: |is.|
V:3
 F3 F B,2 (CD) | E4 A,2 A, A, | B,2 C2 E3 E | E4 z4 | D4 B,2 B,2 | E3 D C4 | F2 D D E4- | E8 | %8
w: Re- qui- em ae- *|ter- nam do- na|e- is, Do- mi-|ne,|et lux per-|pe- tu- a|lu- ce- at e-||
 [A,E]8 |] %9
w: is.|

